Newaita-dark/apps/22/wps-office-wppmain.svg

<svg height="22" viewBox="0 0 22 22" width="22" xmlns="http://www.w3.org/2000/svg" xmlns:xlink="http://www.w3.org/1999/xlink"><linearGradient id="a" gradientUnits="userSpaceOnUse" x1="10.9151136" x2="10.9151136" y1="19.27333715" y2="20.18293042919"><stop offset="0" stop-opacity=".27451"/><stop offset="1" stop-opacity="0"/></linearGradient><linearGradient id="b"><stop offset="0" stop-opacity=".313726"/><stop offset=".222222" stop-opacity=".27451"/><stop offset="1" stop-opacity="0"/></linearGradient><radialGradient id="c" cx="450.908936" cy="189.579361" gradientTransform="matrix(.00000012 -.0537161 -.0966889 -.00000007 33.565844 43.721791)" gradientUnits="userSpaceOnUse" r="21.166656" xlink:href="#b"/><radialGradient id="d" cx="450.908936" cy="189.579361" gradientTransform="matrix(-.00000012 .0537161 .0966889 .00000007 -12.190429 -5.175142)" gradientUnits="userSpaceOnUse" r="21.166656" xlink:href="#b"/><radialGradient id="e" cx="450.908936" cy="189.579361" gradientTransform="matrix(-.00000012 -.0537161 .0966889 -.00000007 -12.190429 43.721791)" gradientUnits="userSpaceOnUse" r="21.166656" xlink:href="#b"/><radialGradient id="f" cx="450.908936" cy="189.579361" gradientTransform="matrix(.00000012 .0537161 -.0966889 .00000007 33.565842 -5.175142)" gradientUnits="userSpaceOnUse" r="21.166656" xlink:href="#b"/><linearGradient id="g" gradientUnits="userSpaceOnUse" x1="10.687706" x2="10.687706" y1="19.27332401286" y2="1.99107548985"><stop offset="0" stop-color="#eee"/><stop offset="1" stop-color="#f5f5f5"/></linearGradient><linearGradient id="h"><stop offset="0" stop-color="#ff7043"/><stop offset="1" stop-color="#ff8a65"/></linearGradient><linearGradient id="i" gradientUnits="userSpaceOnUse" x1="10.687706" x2="10.687706" xlink:href="#h" y1="19.27332401286" y2="1.99107548985"/><linearGradient id="j" gradientTransform="matrix(.229136 -.132292 .132292 .229136 -19.209612 -92.343376)" gradientUnits="userSpaceOnUse" x1="786.339783" x2="1136.339722" y1="1183.226074" y2="577.008301"><stop offset="0" stop-color="#9e9e9e"/><stop offset="1" stop-color="#bdbdbd"/></linearGradient><linearGradient id="k" gradientTransform="matrix(.0429729 0 0 .0542815 0 5.198301)" gradientUnits="userSpaceOnUse" x1="243.416656" x2="243.416656" xlink:href="#h" y1="259.296906" y2="-59.085064"/><path d="m5.914062 19.273438h9.550782v.910156h-9.550782zm0 0" fill="url(#a)"/><path d="m15.464844 19.273438h1.816406v-.910157h-1.816406zm0 0" fill="url(#c)"/><path d="m5.914062 19.273438h-1.820312v.910156h1.820312zm0 0" fill="url(#d)"/><path d="m5.914062 19.273438h-1.820312v-.910157h1.820312zm0 0" fill="url(#e)"/><path d="m15.464844 19.273438h1.816406v.910156h-1.816406zm0 0" fill="url(#f)"/><path d="m5.003906 1.992188c-.503906 0-.910156.40625-.910156.910156v15.460937c0 .503907.40625.910157.910156.910157h11.367188c.503906 0 .910156-.40625.910156-.910157v-12.277343l-4.09375-4.09375zm9.09375 0 3.183594 3.183593v-2.273437c0-.503906-.40625-.910156-.910156-.910156zm0 0" fill="url(#g)"/><path d="m14.097656 1.992188 3.183594 3.183593v-2.273437c0-.503906-.40625-.910156-.910156-.910156zm0 0" fill="url(#i)"/><path d="m5.003906 1.992188c-.503906 0-.910156.40625-.910156.910156v.226562c0-.503906.40625-.910156.910156-.910156h8.183594l4.09375 4.09375v-.226562l-4.09375-4.09375zm9.09375 0 .226563.226562h2.046875c.503906 0 .910156.40625.910156.910156v-.226562c0-.503906-.40625-.910156-.910156-.910156zm0 0" fill="#fff" fill-opacity=".392157"/><path d="m283.407533-97.406938 39.632579 68.72071 32.087845-18.543684 22.906903-13.180559 13.725962-7.999237c-21.997899-38.087271-70.356918-50.99513-108.353289-28.99723zm-5.817626 21.634297c-38.087272 21.9979-51.086031 70.356918-29.088132 108.44419 21.9979 38.087272 70.356918 51.08603 108.44419 29.088131s50.99513-70.356918 28.997231-108.444189l-13.725962 7.908335-22.906904 13.27146-32.087844 18.452783zm0 0" fill="url(#j)" stroke="#212121" stroke-linecap="round" stroke-linejoin="round" stroke-width="3" transform="matrix(.0429729 0 0 .0429729 -2.956174 11.740542)"/><path d="m4.09375 11.542969h13.1875v4.320312h-13.1875zm0 0" fill="url(#k)"/><path d="m4.09375 15.863281v.339844h13.1875v-.339844zm0 0" fill-opacity=".235294"/><path d="m4.09375 11.542969v.339843h13.1875v-.339843zm0 0" fill="#fff" fill-opacity=".392157"/><path d="m4.09375 11.476562c-.035156 0-.066406.03125-.066406.066407v4.320312c0 .035157.03125.0625.066406.0625h13.1875c.035156 0 .066406-.027343.066406-.0625v-4.320312c0-.035157-.03125-.066407-.066406-.066407zm.0625.128907h13.0625v4.191406h-13.0625zm0 0" fill="#212121"/><path d="m14.097656 1.992188 3.183594 3.183593v-.339843l-2.84375-2.84375zm-10.003906 16.035156v.335937c0 .503907.40625.910157.910156.910157h11.367188c.503906 0 .910156-.40625.910156-.910157v-.335937c0 .503906-.40625.910156-.910156.910156h-11.367188c-.503906 0-.910156-.40625-.910156-.910156zm0 0" fill-opacity=".235294"/><path d="m5.003906 1.925781c-.539062 0-.976562.4375-.976562.976563v15.460937c0 .539063.4375.972657.976562.972657h11.367188c.539062 0 .976562-.433594.976562-.972657v-12.277343c0-.019532-.007812-.035157-.019531-.046876l-4.09375-4.09375c-.011719-.011718-.027344-.019531-.046875-.019531zm9.09375 0c-.023437 0-.046875.015625-.058594.039063-.011718.027344-.003906.054687.015626.070312l3.183593 3.183594c.015625.019531.042969.027344.070313.015625.023437-.011719.039062-.035156.039062-.058594v-2.273437c0-.539063-.4375-.976563-.976562-.976563zm-9.09375.128907h8.160156l4.054688 4.054687v12.253906c0 .46875-.375.84375-.847656.84375h-11.367188c-.46875 0-.847656-.375-.847656-.84375v-15.460937c0-.472656.378906-.847656.847656-.847656zm9.25 0h2.117188c.472656 0 .847656.375.847656.847656v2.117187zm0 0" fill="#212121"/></svg>

<?xml version="1.0" encoding="UTF-8"?>
<svg xmlns="http://www.w3.org/2000/svg" xmlns:xlink="http://www.w3.org/1999/xlink" width="22px" height="22px" viewBox="0 0 22 22" version="1.1">
<defs>
<linearGradient id="linear0" gradientUnits="userSpaceOnUse" x1="254" y1="233.5" x2="254" y2="254.666672" gradientTransform="matrix(0.0429729,0,0,0.0429729,-0.00000262285,9.239165)">
<stop offset="0" style="stop-color:rgb(0%,0%,0%);stop-opacity:0.27451;"/>
<stop offset="1" style="stop-color:rgb(0%,0%,0%);stop-opacity:0;"/>
</linearGradient>
<radialGradient id="radial0" gradientUnits="userSpaceOnUse" cx="450.908936" cy="189.579361" fx="450.908936" fy="189.579361" r="21.166656" gradientTransform="matrix(0.000000119742,-0.0537161,-0.0966889,-0.0000000698078,33.565844,43.721791)">
<stop offset="0" style="stop-color:rgb(0%,0%,0%);stop-opacity:0.313726;"/>
<stop offset="0.222222" style="stop-color:rgb(0%,0%,0%);stop-opacity:0.27451;"/>
<stop offset="1" style="stop-color:rgb(0%,0%,0%);stop-opacity:0;"/>
</radialGradient>
<radialGradient id="radial1" gradientUnits="userSpaceOnUse" cx="450.908936" cy="189.579361" fx="450.908936" fy="189.579361" r="21.166656" gradientTransform="matrix(-0.000000119742,0.0537161,0.0966889,0.0000000698078,-12.190429,-5.175142)">
<stop offset="0" style="stop-color:rgb(0%,0%,0%);stop-opacity:0.313726;"/>
<stop offset="0.222222" style="stop-color:rgb(0%,0%,0%);stop-opacity:0.27451;"/>
<stop offset="1" style="stop-color:rgb(0%,0%,0%);stop-opacity:0;"/>
</radialGradient>
<radialGradient id="radial2" gradientUnits="userSpaceOnUse" cx="450.908936" cy="189.579361" fx="450.908936" fy="189.579361" r="21.166656" gradientTransform="matrix(-0.000000119742,-0.0537161,0.0966889,-0.0000000698078,-12.190429,43.721791)">
<stop offset="0" style="stop-color:rgb(0%,0%,0%);stop-opacity:0.313726;"/>
<stop offset="0.222222" style="stop-color:rgb(0%,0%,0%);stop-opacity:0.27451;"/>
<stop offset="1" style="stop-color:rgb(0%,0%,0%);stop-opacity:0;"/>
</radialGradient>
<radialGradient id="radial3" gradientUnits="userSpaceOnUse" cx="450.908936" cy="189.579361" fx="450.908936" fy="189.579361" r="21.166656" gradientTransform="matrix(0.000000119742,0.0537161,-0.0966889,0.0000000698078,33.565842,-5.175142)">
<stop offset="0" style="stop-color:rgb(0%,0%,0%);stop-opacity:0.313726;"/>
<stop offset="0.222222" style="stop-color:rgb(0%,0%,0%);stop-opacity:0.27451;"/>
<stop offset="1" style="stop-color:rgb(0%,0%,0%);stop-opacity:0;"/>
</radialGradient>
<linearGradient id="linear1" gradientUnits="userSpaceOnUse" x1="940" y1="1695.118164" x2="940" y2="175.118118" gradientTransform="matrix(0.0113699,0,0,0.0113699,0,0)">
<stop offset="0" style="stop-color:rgb(93.333334%,93.333334%,93.333334%);stop-opacity:1;"/>
<stop offset="1" style="stop-color:rgb(96.078432%,96.078432%,96.078432%);stop-opacity:1;"/>
</linearGradient>
<linearGradient id="linear2" gradientUnits="userSpaceOnUse" x1="940" y1="1695.118164" x2="940" y2="175.118118" gradientTransform="matrix(0.0113699,0,0,0.0113699,0,0)">
<stop offset="0" style="stop-color:rgb(100%,43.921569%,26.274511%);stop-opacity:1;"/>
<stop offset="1" style="stop-color:rgb(100%,54.11765%,39.607844%);stop-opacity:1;"/>
</linearGradient>
<linearGradient id="linear3" gradientUnits="userSpaceOnUse" x1="786.339783" y1="1183.226074" x2="1136.339722" y2="577.008301" gradientTransform="matrix(0.229136,-0.132292,0.132292,0.229136,-19.209612,-92.343376)">
<stop offset="0" style="stop-color:rgb(61.960787%,61.960787%,61.960787%);stop-opacity:1;"/>
<stop offset="1" style="stop-color:rgb(74.117649%,74.117649%,74.117649%);stop-opacity:1;"/>
</linearGradient>
<linearGradient id="linear4" gradientUnits="userSpaceOnUse" x1="243.416656" y1="259.296906" x2="243.416656" y2="-59.085064" gradientTransform="matrix(0.0429729,0,0,0.0542815,0.000000437142,5.198301)">
<stop offset="0" style="stop-color:rgb(100%,43.921569%,26.274511%);stop-opacity:1;"/>
<stop offset="1" style="stop-color:rgb(100%,54.11765%,39.607844%);stop-opacity:1;"/>
</linearGradient>
</defs>
<g id="surface1">
<path style=" stroke:none;fill-rule:nonzero;fill:url(#linear0);" d="M 5.914062 19.273438 L 15.464844 19.273438 L 15.464844 20.183594 L 5.914062 20.183594 Z M 5.914062 19.273438 "/>
<path style=" stroke:none;fill-rule:nonzero;fill:url(#radial0);" d="M 15.464844 19.273438 L 17.28125 19.273438 L 17.28125 18.363281 L 15.464844 18.363281 Z M 15.464844 19.273438 "/>
<path style=" stroke:none;fill-rule:nonzero;fill:url(#radial1);" d="M 5.914062 19.273438 L 4.09375 19.273438 L 4.09375 20.183594 L 5.914062 20.183594 Z M 5.914062 19.273438 "/>
<path style=" stroke:none;fill-rule:nonzero;fill:url(#radial2);" d="M 5.914062 19.273438 L 4.09375 19.273438 L 4.09375 18.363281 L 5.914062 18.363281 Z M 5.914062 19.273438 "/>
<path style=" stroke:none;fill-rule:nonzero;fill:url(#radial3);" d="M 15.464844 19.273438 L 17.28125 19.273438 L 17.28125 20.183594 L 15.464844 20.183594 Z M 15.464844 19.273438 "/>
<path style=" stroke:none;fill-rule:nonzero;fill:url(#linear1);" d="M 5.003906 1.992188 C 4.5 1.992188 4.09375 2.398438 4.09375 2.902344 L 4.09375 18.363281 C 4.09375 18.867188 4.5 19.273438 5.003906 19.273438 L 16.371094 19.273438 C 16.875 19.273438 17.28125 18.867188 17.28125 18.363281 L 17.28125 6.085938 L 13.1875 1.992188 Z M 14.097656 1.992188 L 17.28125 5.175781 L 17.28125 2.902344 C 17.28125 2.398438 16.875 1.992188 16.371094 1.992188 Z M 14.097656 1.992188 "/>
<path style=" stroke:none;fill-rule:nonzero;fill:url(#linear2);" d="M 14.097656 1.992188 L 17.28125 5.175781 L 17.28125 2.902344 C 17.28125 2.398438 16.875 1.992188 16.371094 1.992188 Z M 14.097656 1.992188 "/>
<path style=" stroke:none;fill-rule:nonzero;fill:rgb(100%,100%,100%);fill-opacity:0.392157;" d="M 5.003906 1.992188 C 4.5 1.992188 4.09375 2.398438 4.09375 2.902344 L 4.09375 3.128906 C 4.09375 2.625 4.5 2.21875 5.003906 2.21875 L 13.1875 2.21875 L 17.28125 6.3125 L 17.28125 6.085938 L 13.1875 1.992188 Z M 14.097656 1.992188 L 14.324219 2.21875 L 16.371094 2.21875 C 16.875 2.21875 17.28125 2.625 17.28125 3.128906 L 17.28125 2.902344 C 17.28125 2.398438 16.875 1.992188 16.371094 1.992188 Z M 14.097656 1.992188 "/>
<path style="fill-rule:nonzero;fill:url(#linear3);stroke-width:3;stroke-linecap:round;stroke-linejoin:round;stroke:rgb(12.941177%,12.941177%,12.941177%);stroke-opacity:1;stroke-miterlimit:4;" d="M 283.407533 -97.406938 L 323.040112 -28.686228 L 355.127957 -47.229912 L 378.03486 -60.410471 L 391.760822 -68.409708 C 369.762923 -106.496979 321.403904 -119.404838 283.407533 -97.406938 Z M 277.589907 -75.772641 C 239.502635 -53.774741 226.503876 -5.415723 248.501775 32.671549 C 270.499675 70.758821 318.858693 83.757579 356.945965 61.75968 C 395.033237 39.761781 407.941095 -8.597238 385.943196 -46.684509 L 372.217234 -38.776174 L 349.31033 -25.504714 L 317.222486 -7.051931 Z M 277.589907 -75.772641 " transform="matrix(0.0429729,0,0,0.0429729,-2.956174,11.740542)"/>
<path style=" stroke:none;fill-rule:nonzero;fill:url(#linear4);" d="M 4.09375 11.542969 L 17.28125 11.542969 L 17.28125 15.863281 L 4.09375 15.863281 Z M 4.09375 11.542969 "/>
<path style=" stroke:none;fill-rule:nonzero;fill:rgb(0%,0%,0%);fill-opacity:0.235294;" d="M 4.09375 15.863281 L 4.09375 16.203125 L 17.28125 16.203125 L 17.28125 15.863281 Z M 4.09375 15.863281 "/>
<path style=" stroke:none;fill-rule:nonzero;fill:rgb(100%,100%,100%);fill-opacity:0.392157;" d="M 4.09375 11.542969 L 4.09375 11.882812 L 17.28125 11.882812 L 17.28125 11.542969 Z M 4.09375 11.542969 "/>
<path style=" stroke:none;fill-rule:nonzero;fill:rgb(12.941177%,12.941177%,12.941177%);fill-opacity:1;" d="M 4.09375 11.476562 C 4.058594 11.476562 4.027344 11.507812 4.027344 11.542969 L 4.027344 15.863281 C 4.027344 15.898438 4.058594 15.925781 4.09375 15.925781 L 17.28125 15.925781 C 17.316406 15.925781 17.347656 15.898438 17.347656 15.863281 L 17.347656 11.542969 C 17.347656 11.507812 17.316406 11.476562 17.28125 11.476562 Z M 4.15625 11.605469 L 17.21875 11.605469 L 17.21875 15.796875 L 4.15625 15.796875 Z M 4.15625 11.605469 "/>
<path style=" stroke:none;fill-rule:nonzero;fill:rgb(0%,0%,0%);fill-opacity:0.235294;" d="M 14.097656 1.992188 L 17.28125 5.175781 L 17.28125 4.835938 L 14.4375 1.992188 Z M 4.09375 18.027344 L 4.09375 18.363281 C 4.09375 18.867188 4.5 19.273438 5.003906 19.273438 L 16.371094 19.273438 C 16.875 19.273438 17.28125 18.867188 17.28125 18.363281 L 17.28125 18.027344 C 17.28125 18.53125 16.875 18.9375 16.371094 18.9375 L 5.003906 18.9375 C 4.5 18.9375 4.09375 18.53125 4.09375 18.027344 Z M 4.09375 18.027344 "/>
<path style=" stroke:none;fill-rule:nonzero;fill:rgb(12.941177%,12.941177%,12.941177%);fill-opacity:1;" d="M 5.003906 1.925781 C 4.464844 1.925781 4.027344 2.363281 4.027344 2.902344 L 4.027344 18.363281 C 4.027344 18.902344 4.464844 19.335938 5.003906 19.335938 L 16.371094 19.335938 C 16.910156 19.335938 17.347656 18.902344 17.347656 18.363281 L 17.347656 6.085938 C 17.347656 6.066406 17.339844 6.050781 17.328125 6.039062 L 13.234375 1.945312 C 13.222656 1.933594 13.207031 1.925781 13.1875 1.925781 Z M 14.097656 1.925781 C 14.074219 1.925781 14.050781 1.941406 14.039062 1.964844 C 14.027344 1.992188 14.035156 2.019531 14.054688 2.035156 L 17.238281 5.21875 C 17.253906 5.238281 17.28125 5.246094 17.308594 5.234375 C 17.332031 5.222656 17.347656 5.199219 17.347656 5.175781 L 17.347656 2.902344 C 17.347656 2.363281 16.910156 1.925781 16.371094 1.925781 Z M 5.003906 2.054688 L 13.164062 2.054688 L 17.21875 6.109375 L 17.21875 18.363281 C 17.21875 18.832031 16.84375 19.207031 16.371094 19.207031 L 5.003906 19.207031 C 4.535156 19.207031 4.15625 18.832031 4.15625 18.363281 L 4.15625 2.902344 C 4.15625 2.429688 4.535156 2.054688 5.003906 2.054688 Z M 14.253906 2.054688 L 16.371094 2.054688 C 16.84375 2.054688 17.21875 2.429688 17.21875 2.902344 L 17.21875 5.019531 Z M 14.253906 2.054688 "/>
</g>
</svg>
